X: 11977
T: English Pasby, The
R: three-two
M: 3/2
K: Gmajor
|:G2d2- d2cB A2G2|G2d2 e2f2 g4|A2a2- a2gf e2d2|A2d2 e2^c2 d4:|
|:B2e2- e2^d2 e2B2|B2e2- e2^d2 e4|A2d2- d2^c2 d2A2|A2d2 d2^c2 d4|
A2c2- c2B2 c2(BA)|GABc defd g2G2|g2(fe) defd g2G2|g2(fe) dcBA G4:|

